X: 11553
T: Edenderry, The
R: reel
M: 4/4
K: Dmajor
~f3d e2dB|AF (3FEF EDB,D|A,3B, DEFG|ABdf edBA|
~f3d e2dB|AF (3FEF EDB,D|A,3B, DEFG|1 ABdf e2de:|2 ABdf e2d2||
fa (3a^ga b=gaf|dfaf edBA|~f3d e2dB|ABdf eB (3B^AB|
fa (3a^ga b=gaf|dfaf edBA|~f3d e2dB|1 ABdf e2d2:|2 ABdf e2de||

